!! Stephen C. Foster, "Oh! Susanna"
!! from 'Stephen Foster Song Book' Dover Publications (New York) pp. 89-91
!! NOTE:  Leading and trailing bars of rest have been omitted.
**kern
*M2/4
*MM114
*G:
16g
16a
=1
8b
8dd
8dd
8ee
=2
8dd
8b
8.g
16a
=3
8b
8b
8a
8g
=4
4.a
16g
16a
=5
8b
8dd
8.dd
16ee
=6
8dd
8b
{8.g
16a}
=7
8b
8b
8a
8a
=8
4.g
16g
16a
=9
8b
8dd
8dd
8ee
=10
8dd
8b
8.g
16a
=11
8b
8b
8a
8g
=12
4.a
16g
16a
=13
8b
8dd
8dd
8ee
=14
8dd
8b
8.g;
16a
=15
8b
8b
8a
8a
=16
4g
4r
!! Chorus
=17
4cc
4cc
=18
8ee
4ee
8ee
=19
8dd
8dd
8b
8g
=20
4.a
16g
16a
=21
8b
8dd
8dd
8ee
=22
8dd
8b
8.g
16a
=23
8b
8b
8a
8a
=24
4g
4r
==
*-
